X: 10862
T: The LAKES OF KILLARNEY
O: Irish
Q: "Slowish"
%R: jig
B: "Edinburgh Repository of Music" v.1 p.86 #2 - p.87 #1
F: http://digital.nls.uk/special-collections-of-printed-music/pageturner.cfm?id=87776133
Z: 2015 John Chambers <jc:trillian.mit.edu>
M: 6/8
L: 1/8
K: Bb
B/c/ !segno!|\
{Bc}d.B.B Tc.B.B | fdg fdb |\
gcc Tc>de/f/ | gec c2B/c/ |\
{Bc}dBB TcBB | (fdb) Hbag |\
{g}fe/d/c/B/ fdB |
GFB HB2 :|\
|: d/e/ |\
(f/g/)f/d/b f/g/f/d/b | gcc Tc>de/c/ |\
(f/g/f/)d/b f/g/f/d/b | TGFB TB2d/e/ |\
(fdB) ({B}fdB) | fgg Tg>ab |
(fd).B (fd).B | ecc c2d/e/ |\
(fd).B (fd).B | fga Hb2a/g/ |\
fdB fdB | (cc/d/)e/c/ Hg2f/"_D.C."e/ !segno!|]\
d/B/ |\
(F_A).A (GB).B |
A/(F/G/A/)F B2(d/B/) |\
(F_A).A (GB).B | A/F/G/A/F B2B/c/ |\
dBF dBf | dBB e(f/e/d/)c/ |\
dBF dBf | dBB "_D.C.al Segno"He2f/e/ !segno!|]

%%sep 2 1 500
%%sep 1 1 500

